X:6
T:Jigg ye Peace, A
T:Peace Jigg,aka, Ye
M:6/4
L:1/4
Q:3/4=85
Z:Pete Stewart, 2004 <www.hornpipemusic.co.uk>
S:D.Wright, Extraordinary Collection, London 1713
K:G
G/G/ | BdgB>cd | eEGA/B/c/B/A/G/ | F3D2G/G/ | Bdg B>cd | e>fgeaf | g3G2 ||
F | GEc B>de | dB^def^d | e3E2A | cAdB>cd | e>fgeaf | g3G2 |]

